%
; JoyCAD post-processor output
; date: 2026-06-28T00:43:41.900785Z
; engine: cadquery_cam
; est time: 0.0 min
%
G21 G90 G94 G17
M8
T1 M6
G0 X0.000 Y0.000 Z5.000
G0 X2.000 Y2.000 Z5.000
G1 X2.000 Y2.000 Z-0.500 F600.000
G1 X48.000 Y2.000 Z-0.500 F600.000
G0 X48.000 Y6.000 Z5.000
G1 X2.000 Y6.000 Z-0.500 F600.000
G0 X2.000 Y10.000 Z5.000
G1 X48.000 Y10.000 Z-0.500 F600.000
G0 X48.000 Y14.000 Z5.000
G1 X2.000 Y14.000 Z-0.500 F600.000
G0 X2.000 Y18.000 Z5.000
G1 X48.000 Y18.000 Z-0.500 F600.000
G0 X48.000 Y22.000 Z5.000
G1 X2.000 Y22.000 Z-0.500 F600.000
G0 X2.000 Y26.000 Z5.000
G1 X48.000 Y26.000 Z-0.500 F600.000
G0 X48.000 Y30.000 Z5.000
G0 X2.000 Y2.000 Z5.000
G1 X2.000 Y2.000 Z-50.000 F400.000
G1 X48.000 Y2.000 Z-50.000 F400.000
G1 X48.000 Y28.000 Z-50.000 F400.000
G1 X2.000 Y28.000 Z-50.000 F400.000
G1 X2.000 Y2.000 Z-50.000 F400.000
G0 X2.000 Y2.000 Z5.000
G0 X0.000 Y0.000 Z15.000
M5
M9
M2
%